X: 11246
T: Dusty Miller, The
R: slip jig
M: 9/8
K: Dmajor
|:A2 A A2 G A2 D|A2 A A2 G B2 d|ABA A2 G ADD|B2 G G2 A B2 d:|
|:A2 D DDG A2 d|A2 D DDG B2 d|ADD A2 D G2 A|BGG G2 A B2 d:|

